data-matrix-remove.svg

<svg fill="currentColor" viewBox="0 0 24 24"><path d="M16 2v2h-2V2zm-4 0h-2v4h2zm-2 12H8v2h2zm6-10v2h-2v2h4V4zM8 2H6v4h2zm12 0h-2v2h2zm-6.2 20H2V2h2v4h2v6H4v2h2v2h2v2h2v2h2v-2h-2v-2h2v-4H8V8h4v2h2v2h2v-2h2v2h4v1.8c-.9-.5-1.9-.8-3-.8-1.2 0-2.4.4-3.3 1H14v1.7c-.6.9-1 2.1-1 3.3 0 1.1.3 2.1.8 3M6 18H4v2h2zM22 8h-4v2h4zm0-2V4h-2v2zm-.9 9.5L19 17.6l-2.1-2.1-1.4 1.4 2.1 2.1-2.1 2.1 1.4 1.4 2.1-2.1 2.1 2.1 1.4-1.4-2.1-2.1 2.1-2.1z"/></svg>

<svg  viewBox="0 0 24 24" fill="currentColor"><path  d="M16 2V4H14V2H16M12 2H10V6H12V2M10 14H8V16H10V14M16 4V6H14V8H18V4H16M8 2H6V6H8V2M20 2H18V4H20V2M13.8 22H2V2H4V6H6V12H4V14H6V16H8V18H10V20H12V18H10V16H12V12H8V8H12V10H14V12H16V10H18V12H22V13.8C21.1 13.3 20.1 13 19 13C17.8 13 16.6 13.4 15.7 14H14V15.7C13.4 16.6 13 17.8 13 19C13 20.1 13.3 21.1 13.8 22M6 18H4V20H6V18M22 8H18V10H22V8M22 6V4H20V6H22M21.1 15.5L19 17.6L16.9 15.5L15.5 16.9L17.6 19L15.5 21.1L16.9 22.5L19 20.4L21.1 22.5L22.5 21.1L20.4 19L22.5 16.9L21.1 15.5Z"/></svg>
